images/KlondikeLabel.svg

<svg xmlns="http://www.w3.org/2000/svg" width="252" height="54" viewBox="0 0 252 54">
    <g fill-opacity=".401">
        <path d="M88.671 7.288q2.116 0 3.565.897l.304.242 5.929-.403q-4.6 7.636-7.866 12.926t-5.359 8.855-3.082 5.658-.989 3.335q0 .506.299.782t.667.276q1.058 0 2.668-1.173t3.335-2.921l1.339-1.43c-.032-1.524.549-2.94 1.214-4.274q1.242-2.116 3.197-3.611t4.416-2.277 4.853-.782q1.978 0 3.266.552t2.185 1.357 1.518 1.771 1.242 1.771 1.38 1.357 1.909.552c1.349-.195.741-.015 1.841-.477l3.541-6.055 6.532-.276q-3.312 4.6-6.348 9.384l.092.092q1.196-1.518 2.668-3.266t3.105-3.243 3.358-2.507 3.427-1.012q1.748 0 2.921.897t1.173 2.737q0 1.518-.943 3.128t-2.093 3.151-2.093 2.944-.943 2.461q0 .46.253.805t.805.345q1.012 0 2.3-.943t2.668-2.323c1.389-1.442.718-.72 2.014-2.163.629-2.407.222-1.365 1.091-3.173q1.311-2.346 3.381-4.094t4.623-2.76 5.037-1.012q1.472 0 2.392.874t1.242 2.208l10.12-17.986 6.624-.46q-3.864 6.44-6.647 11.063t-4.715 7.866-3.082 5.29-1.771 3.289-.828 1.909-.207 1.173q0 .552.299.897t.943.345q.782 0 2.208-.92t2.898-2.392c2.223-2.372 1.487-1.476 2.36-2.555.427-1.247.129-.494 1.021-2.206q1.771-3.105 4.485-7.659l6.578-.184q-1.472 2.346-2.898 4.554t-2.53 4.117-1.771 3.381-.667 2.346q0 .644.23 1.081t.828.437q.92 0 2.001-.667t2.231-1.702c1.414-1.357.789-.714 1.895-1.908 3.381-5.725 1.211-2.047 6.5-11.041q4.669-7.958 9.407-16.054l6.624-.46q-3.864 6.486-7.705 12.834t-7.797 12.466l.092.092 2.691-3.289q1.449-1.771 3.059-3.266t3.404-2.484 3.772-.989q.782 0 1.518.161t1.288.552.897.989.345 1.472q0 1.518-1.104 2.461t-2.599 1.472-3.059.759-2.484.322v.092l1.38.552q.69.276 1.242.667t.92.966.368 1.403q0 .46-.161.966t-.368.989-.368.943-.161.828q0 .874.782.874t1.794-.621 2.162-1.61 2.323-2.231c1.175-1.287.778-.823 1.232-1.357.791-2.637.296-1.555 1.275-3.335q1.38-2.162 3.473-3.772t4.554-2.576 4.669-.966 3.634.713 1.426 2.323-1.564 2.806-3.703 2.047-4.301 1.38-3.404.805q-.092.46-.138.92t-.046.92q0 .828.184 1.633t.621 1.403 1.15.966 1.771.368q2.162 0 4.646-1.587t5.014-3.979q1.61-1.564 2.829-3.036t2.047-2.668l.414.276q-1.058 1.518-2.369 3.059t-2.967 3.151q-3.174 3.036-6.164 4.6t-6.67 1.564q-3.174 0-4.83-1.472t-1.656-4.278l.036-.504-1.6 1.7q-1.38 1.38-2.484 2.254t-2.116 1.38-1.955.713-1.955.207q-1.932 0-3.151-.828t-1.219-2.53q0-.966.345-1.679t.759-1.357.759-1.311.345-1.495q-.598.23-1.242.414t-1.288.184q-.322 0-.552-.138t-.23-.506q0-.736 1.104-.736.736 0 1.288.115t.966.115q.69 0 1.403-.437t1.334-1.104 1.012-1.495.391-1.61q0-.552-.322-.943t-.92-.391q-.828 0-2.001.828t-2.484 2.162-2.645 2.99-2.507 3.312-2.093 3.151-1.426 2.461l-6.348.276 2.005-3.395c-1.026 1.076-2.208 1.982-3.431 2.82q-1.794 1.127-4.002 1.127-1.886 0-2.852-1.081t-.966-3.013c.132-1.315-.009-.751.32-1.713l-2.068 2.173q-1.978 1.932-3.634 2.783t-3.404.851q-1.794 0-2.829-1.104t-1.035-2.76q0-.506.23-1.104l-.092-.092q-1.61 2.07-3.703 3.565t-4.945 1.495q-2.162 0-3.22-1.426t-1.058-3.358l.053-.859-1.433 1.549q-1.886 1.932-3.657 3.013t-3.611 1.081q-2.07 0-3.105-1.219t-1.035-3.151q0-1.656.897-3.151t2.001-2.806 2.001-2.415.897-2.07q0-1.288-1.242-1.288-.828 0-2.024.851t-2.576 2.231-2.806 3.082-2.691 3.404-2.208 3.22-1.403 2.484l-6.256.276 5.522-9.444c-.779.247-.324.141-1.382.244q-1.196 0-2.139-.575t-1.725-1.541h-.092q0 2.392-1.127 4.554t-2.99 3.795-4.255 2.576-4.968.943q-1.518 0-2.944-.322t-2.53-1.058-1.771-1.932c-.452-.794-.606-1.708-.65-2.609l-.316.355q-1.357 1.472-2.852 2.714t-3.082 2.047-3.151.805q-1.932 0-2.898-.966t-.966-2.438q0-1.012.322-2.139l.069-.202-1.127 1.191q-2.162 2.116-4.301 3.243t-4.945 1.127q-2.162 0-3.404-1.081t-1.242-3.243q0-1.334.644-2.783t1.403-2.875 1.38-2.737.621-2.323q0-1.288-.782-1.863t-2.116-.575q-.276 0-.483-.046t-.207-.23q0-.276.506-.276 1.886 0 3.381-.299t2.898-1.15 2.875-2.369 3.266-3.956q1.656-2.208 3.404-3.703t3.496-2.392 3.496-1.288 3.312-.391m15.226 16.652q-1.104 0-2.231.759t-2.185 1.978-1.978 2.76-1.61 3.105-1.081 3.036-.391 2.576q0 1.058.483 1.702t1.357.644q1.104 0 2.231-.759t2.185-1.978 1.978-2.76 1.61-3.105 1.081-3.059.391-2.553-.483-1.702-1.357-.644M88.073 7.84q-.966 0-1.794.828t-1.702 2.139-1.886 2.898-2.3 3.105q-1.518 1.748-3.036 2.875t-3.358 1.84-4.117 1.104-5.267.667v.092q1.058.552 2.024 1.15t1.725 1.403 1.219 1.817.46 2.346q0 .966-.345 2.024t-.759 2.093-.759 1.978-.345 1.633q0 .782.368 1.219t1.15.437q1.288 0 2.944-1.081t3.542-3.059l1.226-1.341.499-1.166q.713-1.541 1.886-3.634t2.898-4.991 4.048-6.762c1.758-2.937.805-1.338 2.856-4.801.381-1.522.255-.76.387-2.283q0-2.53-1.564-2.53m65.412 16.1q-1.38 0-2.921 1.38t-2.852 3.358-2.162 4.163-.851 3.795q0 1.058.368 1.725t1.242.667q1.104 0 2.185-.69t2.093-1.817 1.863-2.553 1.495-2.829 1.012-2.691.368-2.162q0-1.058-.391-1.702t-1.449-.644m61.962 0q-1.012 0-2.185 1.035t-2.162 2.484-1.725 2.967-.92 2.53q1.932-.414 3.473-1.265t2.622-1.909 1.633-2.254.552-2.3q0-1.288-1.288-1.288"/>
        <path d="M79.241 6.736q1.38 0 1.38.828 0 .414-.667.575t-1.357.161q-.552 0-1.288-.046t-1.564-.046h-.046q-.506 0-1.587.322t-2.461 1.196-2.967 2.369-3.105 3.795q-1.61 2.392-3.082 5.175t-3.105 5.566-3.542 5.359-4.393 4.554-5.635 3.151-7.291 1.173q-1.61 0-2.967-.391t-2.346-1.081-1.541-1.679-.552-2.185q0-1.472.828-2.507t2.438-1.035q1.058 0 1.932.621t.874 1.771q0 .874-.368 1.541t-1.242.897q0 .092-.023.184t-.023.276q0 1.426.943 2.254t2.461.782q2.714-.046 4.784-1.518t3.979-4.025 3.864-6.072 4.347-7.659q1.84-3.174 4.071-5.428t4.6-3.749 4.692-2.346T73.629 8.3v-.092q-8.694.046-14.582 1.196t-9.499 2.944-5.175 4.048-1.564 4.462q0 1.794 1.15 2.898t2.898 1.104q1.288 0 2.438-.552t2.001-1.403 1.334-1.932.483-2.093q0-1.748-1.058-3.174l.414-.184q.46.552.828 1.38t.368 2.07q0 1.288-.667 2.645t-1.909 2.438-2.99 1.771-3.864.69q-2.714 0-4.416-1.587t-1.702-4.347q0-2.3 1.219-4.094t3.312-3.151 4.807-2.3 5.704-1.564 6.072-.989 5.842-.552 5.037-.23 3.657-.046q.598 0 1.357-.138t1.518-.322 1.449-.322 1.15-.138M177.865 13.544q1.334 0 2.277.943t.943 2.277-.943 2.277-2.277.943-2.277-.943-.943-2.277.943-2.277 2.277-.943"/>
    </g>
</svg>

<?xml version="1.0" encoding="UTF-8"?>
<!DOCTYPE svg PUBLIC "-//W3C//DTD SVG 1.1//EN" "http://www.w3.org/Graphics/SVG/1.1/DTD/svg11.dtd">
<svg version="1.1" xmlns="http://www.w3.org/2000/svg" xmlns:xlink="http://www.w3.org/1999/xlink" x="0" y="0" width="252" height="54" viewBox="0, 0, 252, 54">
  <g id="Layer_1">
    <path d="M88.671,7.288 Q90.787,7.288 92.236,8.185 L92.54,8.427 L98.469,8.024 Q93.869,15.66 90.603,20.95 Q87.337,26.24 85.244,29.805 Q83.151,33.37 82.162,35.463 Q81.173,37.556 81.173,38.798 Q81.173,39.304 81.472,39.58 Q81.771,39.856 82.139,39.856 Q83.197,39.856 84.807,38.683 Q86.417,37.51 88.142,35.762 L89.481,34.332 C89.449,32.808 90.03,31.392 90.695,30.058 Q91.937,27.942 93.892,26.447 Q95.847,24.952 98.308,24.17 Q100.769,23.388 103.161,23.388 Q105.139,23.388 106.427,23.94 Q107.715,24.492 108.612,25.297 Q109.509,26.102 110.13,27.068 Q110.751,28.034 111.372,28.839 Q111.993,29.644 112.752,30.196 Q113.511,30.748 114.661,30.748 C116.01,30.553 115.402,30.733 116.502,30.271 L120.043,24.216 L126.575,23.94 Q123.263,28.54 120.227,33.324 L120.319,33.416 Q121.515,31.898 122.987,30.15 Q124.459,28.402 126.092,26.907 Q127.725,25.412 129.45,24.4 Q131.175,23.388 132.877,23.388 Q134.625,23.388 135.798,24.285 Q136.971,25.182 136.971,27.022 Q136.971,28.54 136.028,30.15 Q135.085,31.76 133.935,33.301 Q132.785,34.842 131.842,36.245 Q130.899,37.648 130.899,38.706 Q130.899,39.166 131.152,39.511 Q131.405,39.856 131.957,39.856 Q132.969,39.856 134.257,38.913 Q135.545,37.97 136.925,36.59 C138.314,35.148 137.643,35.87 138.939,34.427 C139.568,32.02 139.161,33.062 140.03,31.254 Q141.341,28.908 143.411,27.16 Q145.481,25.412 148.034,24.4 Q150.587,23.388 153.071,23.388 Q154.543,23.388 155.463,24.262 Q156.383,25.136 156.705,26.47 L166.825,8.484 L173.449,8.024 Q169.585,14.464 166.802,19.087 Q164.019,23.71 162.087,26.953 Q160.155,30.196 159.005,32.243 Q157.855,34.29 157.234,35.532 Q156.613,36.774 156.406,37.441 Q156.199,38.108 156.199,38.614 Q156.199,39.166 156.498,39.511 Q156.797,39.856 157.441,39.856 Q158.223,39.856 159.649,38.936 Q161.075,38.016 162.547,36.544 C164.77,34.172 164.034,35.068 164.907,33.989 C165.334,32.742 165.036,33.495 165.928,31.783 Q167.699,28.678 170.413,24.124 L176.991,23.94 Q175.519,26.286 174.093,28.494 Q172.667,30.702 171.563,32.611 Q170.459,34.52 169.792,35.992 Q169.125,37.464 169.125,38.338 Q169.125,38.982 169.355,39.419 Q169.585,39.856 170.183,39.856 Q171.103,39.856 172.184,39.189 Q173.265,38.522 174.415,37.487 C175.829,36.13 175.204,36.773 176.31,35.579 C179.691,29.854 177.521,33.532 182.81,24.538 Q187.479,16.58 192.217,8.484 L198.841,8.024 Q194.977,14.51 191.136,20.858 Q187.295,27.206 183.339,33.324 L183.431,33.416 Q184.673,31.898 186.122,30.127 Q187.571,28.356 189.181,26.861 Q190.791,25.366 192.585,24.377 Q194.379,23.388 196.357,23.388 Q197.139,23.388 197.875,23.549 Q198.611,23.71 199.163,24.101 Q199.715,24.492 200.06,25.09 Q200.405,25.688 200.405,26.562 Q200.405,28.08 199.301,29.023 Q198.197,29.966 196.702,30.495 Q195.207,31.024 193.643,31.254 Q192.079,31.484 191.159,31.576 L191.159,31.668 Q191.849,31.944 192.539,32.22 Q193.229,32.496 193.781,32.887 Q194.333,33.278 194.701,33.853 Q195.069,34.428 195.069,35.256 Q195.069,35.716 194.908,36.222 Q194.747,36.728 194.54,37.211 Q194.333,37.694 194.172,38.154 Q194.011,38.614 194.011,38.982 Q194.011,39.856 194.793,39.856 Q195.575,39.856 196.587,39.235 Q197.599,38.614 198.749,37.625 Q199.899,36.636 201.072,35.394 C202.247,34.107 201.85,34.571 202.304,34.037 C203.095,31.4 202.6,32.482 203.579,30.702 Q204.959,28.54 207.052,26.93 Q209.145,25.32 211.606,24.354 Q214.067,23.388 216.275,23.388 Q218.483,23.388 219.909,24.101 Q221.335,24.814 221.335,26.424 Q221.335,28.034 219.771,29.23 Q218.207,30.426 216.068,31.277 Q213.929,32.128 211.767,32.657 Q209.605,33.186 208.363,33.462 Q208.271,33.922 208.225,34.382 Q208.179,34.842 208.179,35.302 Q208.179,36.13 208.363,36.935 Q208.547,37.74 208.984,38.338 Q209.421,38.936 210.134,39.304 Q210.847,39.672 211.905,39.672 Q214.067,39.672 216.551,38.085 Q219.035,36.498 221.565,34.106 Q223.175,32.542 224.394,31.07 Q225.613,29.598 226.441,28.402 L226.855,28.678 Q225.797,30.196 224.486,31.737 Q223.175,33.278 221.519,34.888 Q218.345,37.924 215.355,39.488 Q212.365,41.052 208.685,41.052 Q205.511,41.052 203.855,39.58 Q202.199,38.108 202.199,35.302 L202.235,34.798 L200.635,36.498 Q199.255,37.878 198.151,38.752 Q197.047,39.626 196.035,40.132 Q195.023,40.638 194.08,40.845 Q193.137,41.052 192.125,41.052 Q190.193,41.052 188.974,40.224 Q187.755,39.396 187.755,37.694 Q187.755,36.728 188.1,36.015 Q188.445,35.302 188.859,34.658 Q189.273,34.014 189.618,33.347 Q189.963,32.68 189.963,31.852 Q189.365,32.082 188.721,32.266 Q188.077,32.45 187.433,32.45 Q187.111,32.45 186.881,32.312 Q186.651,32.174 186.651,31.806 Q186.651,31.07 187.755,31.07 Q188.491,31.07 189.043,31.185 Q189.595,31.3 190.009,31.3 Q190.699,31.3 191.412,30.863 Q192.125,30.426 192.746,29.759 Q193.367,29.092 193.758,28.264 Q194.149,27.436 194.149,26.654 Q194.149,26.102 193.827,25.711 Q193.505,25.32 192.907,25.32 Q192.079,25.32 190.906,26.148 Q189.733,26.976 188.422,28.31 Q187.111,29.644 185.777,31.3 Q184.443,32.956 183.27,34.612 Q182.097,36.268 181.177,37.763 Q180.257,39.258 179.751,40.224 L173.403,40.5 L175.408,37.105 C174.382,38.181 173.2,39.087 171.977,39.925 Q170.183,41.052 167.975,41.052 Q166.089,41.052 165.123,39.971 Q164.157,38.89 164.157,36.958 C164.289,35.643 164.148,36.207 164.477,35.245 L162.409,37.418 Q160.431,39.35 158.775,40.201 Q157.119,41.052 155.371,41.052 Q153.577,41.052 152.542,39.948 Q151.507,38.844 151.507,37.188 Q151.507,36.682 151.737,36.084 L151.645,35.992 Q150.035,38.062 147.942,39.557 Q145.849,41.052 142.997,41.052 Q140.835,41.052 139.777,39.626 Q138.719,38.2 138.719,36.268 L138.772,35.409 L137.339,36.958 Q135.453,38.89 133.682,39.971 Q131.911,41.052 130.071,41.052 Q128.001,41.052 126.966,39.833 Q125.931,38.614 125.931,36.682 Q125.931,35.026 126.828,33.531 Q127.725,32.036 128.829,30.725 Q129.933,29.414 130.83,28.31 Q131.727,27.206 131.727,26.24 Q131.727,24.952 130.485,24.952 Q129.657,24.952 128.461,25.803 Q127.265,26.654 125.885,28.034 Q124.505,29.414 123.079,31.116 Q121.653,32.818 120.388,34.52 Q119.123,36.222 118.18,37.74 Q117.237,39.258 116.777,40.224 L110.521,40.5 L116.043,31.056 C115.264,31.303 115.719,31.197 114.661,31.3 Q113.465,31.3 112.522,30.725 Q111.579,30.15 110.797,29.184 L110.705,29.184 Q110.705,31.576 109.578,33.738 Q108.451,35.9 106.588,37.533 Q104.725,39.166 102.333,40.109 Q99.941,41.052 97.365,41.052 Q95.847,41.052 94.421,40.73 Q92.995,40.408 91.891,39.672 Q90.787,38.936 90.12,37.74 C89.668,36.946 89.514,36.032 89.47,35.131 L89.154,35.486 Q87.797,36.958 86.302,38.2 Q84.807,39.442 83.22,40.247 Q81.633,41.052 80.069,41.052 Q78.137,41.052 77.171,40.086 Q76.205,39.12 76.205,37.648 Q76.205,36.636 76.527,35.509 L76.596,35.307 L75.469,36.498 Q73.307,38.614 71.168,39.741 Q69.029,40.868 66.223,40.868 Q64.061,40.868 62.819,39.787 Q61.577,38.706 61.577,36.544 Q61.577,35.21 62.221,33.761 Q62.865,32.312 63.624,30.886 Q64.383,29.46 65.004,28.149 Q65.625,26.838 65.625,25.826 Q65.625,24.538 64.843,23.963 Q64.061,23.388 62.727,23.388 Q62.451,23.388 62.244,23.342 Q62.037,23.296 62.037,23.112 Q62.037,22.836 62.543,22.836 Q64.429,22.836 65.924,22.537 Q67.419,22.238 68.822,21.387 Q70.225,20.536 71.697,19.018 Q73.169,17.5 74.963,15.062 Q76.619,12.854 78.367,11.359 Q80.115,9.864 81.863,8.967 Q83.611,8.07 85.359,7.679 Q87.107,7.288 88.671,7.288 z M103.897,23.94 Q102.793,23.94 101.666,24.699 Q100.539,25.458 99.481,26.677 Q98.423,27.896 97.503,29.437 Q96.583,30.978 95.893,32.542 Q95.203,34.106 94.812,35.578 Q94.421,37.05 94.421,38.154 Q94.421,39.212 94.904,39.856 Q95.387,40.5 96.261,40.5 Q97.365,40.5 98.492,39.741 Q99.619,38.982 100.677,37.763 Q101.735,36.544 102.655,35.003 Q103.575,33.462 104.265,31.898 Q104.955,30.334 105.346,28.839 Q105.737,27.344 105.737,26.286 Q105.737,25.228 105.254,24.584 Q104.771,23.94 103.897,23.94 z M88.073,7.84 Q87.107,7.84 86.279,8.668 Q85.451,9.496 84.577,10.807 Q83.703,12.118 82.691,13.705 Q81.679,15.292 80.391,16.81 Q78.873,18.558 77.355,19.685 Q75.837,20.812 73.997,21.525 Q72.157,22.238 69.88,22.629 Q67.603,23.02 64.613,23.296 L64.613,23.388 Q65.671,23.94 66.637,24.538 Q67.603,25.136 68.362,25.941 Q69.121,26.746 69.581,27.758 Q70.041,28.77 70.041,30.104 Q70.041,31.07 69.696,32.128 Q69.351,33.186 68.937,34.221 Q68.523,35.256 68.178,36.199 Q67.833,37.142 67.833,37.832 Q67.833,38.614 68.201,39.051 Q68.569,39.488 69.351,39.488 Q70.639,39.488 72.295,38.407 Q73.951,37.326 75.837,35.348 L77.063,34.007 L77.562,32.841 Q78.275,31.3 79.448,29.207 Q80.621,27.114 82.346,24.216 Q84.071,21.318 86.394,17.454 C88.152,14.517 87.199,16.116 89.25,12.653 C89.631,11.131 89.505,11.893 89.637,10.37 Q89.637,7.84 88.073,7.84 z M153.485,23.94 Q152.105,23.94 150.564,25.32 Q149.023,26.7 147.712,28.678 Q146.401,30.656 145.55,32.841 Q144.699,35.026 144.699,36.636 Q144.699,37.694 145.067,38.361 Q145.435,39.028 146.309,39.028 Q147.413,39.028 148.494,38.338 Q149.575,37.648 150.587,36.521 Q151.599,35.394 152.45,33.968 Q153.301,32.542 153.945,31.139 Q154.589,29.736 154.957,28.448 Q155.325,27.16 155.325,26.286 Q155.325,25.228 154.934,24.584 Q154.543,23.94 153.485,23.94 z M215.447,23.94 Q214.435,23.94 213.262,24.975 Q212.089,26.01 211.1,27.459 Q210.111,28.908 209.375,30.426 Q208.639,31.944 208.455,32.956 Q210.387,32.542 211.928,31.691 Q213.469,30.84 214.55,29.782 Q215.631,28.724 216.183,27.528 Q216.735,26.332 216.735,25.228 Q216.735,23.94 215.447,23.94 z" fill="#000000" fill-opacity="0.401"/>
    <path d="M79.241,6.736 Q80.621,6.736 80.621,7.564 Q80.621,7.978 79.954,8.139 Q79.287,8.3 78.597,8.3 Q78.045,8.3 77.309,8.254 Q76.573,8.208 75.745,8.208 L75.699,8.208 Q75.193,8.208 74.112,8.53 Q73.031,8.852 71.651,9.726 Q70.271,10.6 68.684,12.095 Q67.097,13.59 65.579,15.89 Q63.969,18.282 62.497,21.065 Q61.025,23.848 59.392,26.631 Q57.759,29.414 55.85,31.99 Q53.941,34.566 51.457,36.544 Q48.973,38.522 45.822,39.695 Q42.671,40.868 38.531,40.868 Q36.921,40.868 35.564,40.477 Q34.207,40.086 33.218,39.396 Q32.229,38.706 31.677,37.717 Q31.125,36.728 31.125,35.532 Q31.125,34.06 31.953,33.025 Q32.781,31.99 34.391,31.99 Q35.449,31.99 36.323,32.611 Q37.197,33.232 37.197,34.382 Q37.197,35.256 36.829,35.923 Q36.461,36.59 35.587,36.82 Q35.587,36.912 35.564,37.004 Q35.541,37.096 35.541,37.28 Q35.541,38.706 36.484,39.534 Q37.427,40.362 38.945,40.316 Q41.659,40.27 43.729,38.798 Q45.799,37.326 47.708,34.773 Q49.617,32.22 51.572,28.701 Q53.527,25.182 55.919,21.042 Q57.759,17.868 59.99,15.614 Q62.221,13.36 64.59,11.865 Q66.959,10.37 69.282,9.519 Q71.605,8.668 73.629,8.3 L73.629,8.208 Q64.935,8.254 59.047,9.404 Q53.159,10.554 49.548,12.348 Q45.937,14.142 44.373,16.396 Q42.809,18.65 42.809,20.858 Q42.809,22.652 43.959,23.756 Q45.109,24.86 46.857,24.86 Q48.145,24.86 49.295,24.308 Q50.445,23.756 51.296,22.905 Q52.147,22.054 52.63,20.973 Q53.113,19.892 53.113,18.88 Q53.113,17.132 52.055,15.706 L52.469,15.522 Q52.929,16.074 53.297,16.902 Q53.665,17.73 53.665,18.972 Q53.665,20.26 52.998,21.617 Q52.331,22.974 51.089,24.055 Q49.847,25.136 48.099,25.826 Q46.351,26.516 44.235,26.516 Q41.521,26.516 39.819,24.929 Q38.117,23.342 38.117,20.582 Q38.117,18.282 39.336,16.488 Q40.555,14.694 42.648,13.337 Q44.741,11.98 47.455,11.037 Q50.169,10.094 53.159,9.473 Q56.149,8.852 59.231,8.484 Q62.313,8.116 65.073,7.932 Q67.833,7.748 70.11,7.702 Q72.387,7.656 73.767,7.656 Q74.365,7.656 75.124,7.518 Q75.883,7.38 76.642,7.196 Q77.401,7.012 78.091,6.874 Q78.781,6.736 79.241,6.736 z" fill="#000000" fill-opacity="0.401"/>
    <path d="M177.865,13.544 Q179.199,13.544 180.142,14.487 Q181.085,15.43 181.085,16.764 Q181.085,18.098 180.142,19.041 Q179.199,19.984 177.865,19.984 Q176.531,19.984 175.588,19.041 Q174.645,18.098 174.645,16.764 Q174.645,15.43 175.588,14.487 Q176.531,13.544 177.865,13.544 z" fill="#000000" fill-opacity="0.401"/>
  </g>
</svg>
